media/icon/mobile.svg

<?xml version="1.0" encoding="UTF-8"?>
<svg width="32px" height="32px" viewBox="0 0 32 32" version="1.1" xmlns="http://www.w3.org/2000/svg" xmlns:xlink="http://www.w3.org/1999/xlink">
    <!-- Generator: Sketch 42 (36781) - http://www.bohemiancoding.com/sketch -->
    <title>icon/entypo/mobile</title>
    <desc>Created with Sketch.</desc>
    <defs></defs>
    <g id="Symbols" stroke="none" stroke-width="1" fill="none" fill-rule="evenodd">
        <g id="icon/entypo/mobile">
            <g id="icon-mobile">
                <ellipse id="Oval-3" fill="#FF4476" cx="16" cy="16" rx="16" ry="16"></ellipse>
                <path d="M22.75,10 L9.25,10 C8.011375,10 7,11.0125 7,12.25 L7,20.125 C7,21.3625 8.011375,22.375 9.25,22.375 L13.75,22.375 L18.25,25.75 L18.25,22.375 L22.75,22.375 C23.9875,22.375 25,21.3625 25,20.125 L25,12.25 C25,11.0125 23.9875,10 22.75,10 Z M11.5,16.75 C10.8792045,16.75 10.375,16.2468182 10.375,15.625 C10.375,15.0031818 10.8781818,14.5 11.5,14.5 C12.1218182,14.5 12.625,15.0031818 12.625,15.625 C12.625,16.2457955 12.1207955,16.75 11.5,16.75 Z M16,16.75 C15.3792045,16.75 14.875,16.2468182 14.875,15.625 C14.875,15.0031818 15.3781818,14.5 16,14.5 C16.6218182,14.5 17.125,15.0031818 17.125,15.625 C17.125,16.2457955 16.6207955,16.75 16,16.75 Z M20.5,16.75 C19.8792045,16.75 19.375,16.2468182 19.375,15.625 C19.375,15.0031818 19.8781818,14.5 20.5,14.5 C21.1218182,14.5 21.625,15.0031818 21.625,15.625 C21.625,16.2457955 21.1207955,16.75 20.5,16.75 Z" id="Shape" fill="#FFFFFF"></path>
            </g>
        </g>
    </g>
</svg>

<svg width="32" height="32" viewBox="0 0 32 32" xmlns="http://www.w3.org/2000/svg"><title>icon/entypo/mobile</title><g fill="none" fill-rule="evenodd"><ellipse fill="#FF4476" cx="16" cy="16" rx="16" ry="16"/><path d="M22.75 10H9.25A2.256 2.256 0 0 0 7 12.25v7.875a2.256 2.256 0 0 0 2.25 2.25h4.5l4.5 3.375v-3.375h4.5a2.257 2.257 0 0 0 2.25-2.25V12.25A2.257 2.257 0 0 0 22.75 10zM11.5 16.75a1.125 1.125 0 1 1 0-2.25 1.125 1.125 0 0 1 0 2.25zm4.5 0a1.125 1.125 0 1 1 0-2.25 1.125 1.125 0 0 1 0 2.25zm4.5 0a1.125 1.125 0 1 1 0-2.25 1.125 1.125 0 0 1 0 2.25z" fill="#FFF"/></g></svg>
